X: 18699
T: I'm The Boy For Bewitching Them
R: slip jig
M: 9/8
K: Gmajor
|:G|GAG Gge dBG|A2 G ABd e2 g|GAG Gge dBG|ABc BAG E2:|
g|gdg gag fed|edB gab a2 f|gab abg fed|ege dBG A2 G|
GAG Gge dBG|A2 G ABd e2 g|GAG Gge dBG|ABc BAG E2||

